icon/cg/corner-double-down-right.svg

<svg viewBox="0 0 24 24" fill="none" xmlns="http://www.w3.org/2000/svg" height="1em" width="1em">
  <path d="M12.6004 7.67915L7.63814 2.74194L2.70093 7.7042L4.11871 9.11483L6.52249 6.69886L6.5075 12.7348C6.50092 15.3857 8.64461 17.5401 11.2956 17.5467L17.224 17.5614L14.9855 19.8638L16.4195 21.258L21.299 16.239L16.2801 11.3595L14.8859 12.7934L17.3217 15.1616L11.3015 15.1467C9.97605 15.1434 8.9042 14.0662 8.9075 12.7407L8.92214 6.84077L11.1898 9.09694L12.6004 7.67915Z" fill="currentColor"/>
</svg>

<svg width="24" height="24" fill="none" xmlns="http://www.w3.org/2000/svg"><path d="M12.6 7.68 7.638 2.741 2.701 7.704l1.418 1.41L6.522 6.7l-.014 6.036a4.8 4.8 0 0 0 4.788 4.812l5.928.014-2.239 2.303 1.434 1.394 4.88-5.019-5.019-4.88-1.394 1.434 2.436 2.369-6.02-.015a2.4 2.4 0 0 1-2.394-2.406l.014-5.9 2.268 2.256 1.41-1.418Z" fill="currentColor"/></svg>
